brandFactory_export/3.Masa/Video _3Masa.svg

<?xml version="1.0" encoding="UTF-8"?>
<svg width="24px" height="24px" viewBox="0 0 24 24" version="1.1" xmlns="http://www.w3.org/2000/svg" xmlns:xlink="http://www.w3.org/1999/xlink">
    <title>3.Masa/Video _3Masa</title>
    <g id="Symbols" stroke="none" stroke-width="1" fill="none" fill-rule="evenodd">
        <g id="3.Masa/Video-_3Masa" fill="#5CB615" fill-rule="nonzero">
            <path d="M19.9294118,21.1378151 C21.7848739,20.989916 22.0840336,19.5042017 22.1277311,18.6168067 L19.9294118,18.6168067 L19.9294118,21.1378151 Z M1.49243697,18.6369748 C1.52605042,19.0638655 1.65714286,19.8436975 2.17478992,20.3983193 C2.52773109,20.7714286 3.03529412,21.0033613 3.69411765,21.0941176 L3.69411765,18.6369748 L1.49243697,18.6369748 Z M2.50420168,2.94285714 C2.26554622,3.09411765 1.58655462,3.55798319 1.49915966,5.11092437 L3.69411765,5.11092437 L3.69411765,2.54621849 C3.3512605,2.58655462 2.90420168,2.68403361 2.50420168,2.94285714 Z M22.1378151,5.09411765 C22.1176471,4.6907563 22.0134454,3.85714286 21.4722689,3.27226891 C21.1226891,2.89243697 20.605042,2.65714286 19.9327731,2.56302521 L19.9327731,5.09411765 L22.1378151,5.09411765 Z M19.9294118,17.1176471 L22.1378151,17.1176471 L22.1378151,14.6134454 L19.9294118,14.6134454 L19.9294118,17.1176471 Z M19.9294118,9.10084034 L22.1378151,9.10084034 L22.1378151,6.59663866 L19.9294118,6.59663866 L19.9294118,9.10084034 Z M19.9294118,13.107563 L22.1378151,13.107563 L22.1378151,10.6033613 L19.9294118,10.6033613 L19.9294118,13.107563 Z M1.48235294,17.1344538 L3.6907563,17.1344538 L3.6907563,14.6302521 L1.48235294,14.6302521 L1.48235294,17.1344538 Z M1.48235294,9.11092437 L3.69411765,9.11092437 L3.69411765,6.61344538 L1.48235294,6.61344538 L1.48235294,9.11092437 Z M1.48235294,10.6134454 L1.48235294,13.1243697 L3.6907563,13.1243697 L3.6907563,10.6134454 L1.48235294,10.6134454 Z M19.2470588,1.01344538 C23.9563025,1.01344538 23.6134454,5.45042017 23.6134454,5.45042017 C23.6134454,5.45042017 23.6168067,13.1983193 23.6168067,18.1932773 C23.6168067,22.287395 20.6857143,22.6571429 19.6268908,22.6571429 C19.394958,22.6571429 19.2504202,22.6369748 19.2504202,22.6369748 L4.34957983,22.6369748 C-0.285714286,22.6369748 0.0100840336,18.2168067 0.0100840336,18.2168067 C0.0100840336,18.2168067 0.00672268908,10.2268908 0.00672268908,5.42352941 C0.00672268908,1.30252101 3.19327731,1.01008403 4.09747899,1.01008403 C4.24537815,1.01008403 4.33277311,1.01680672 4.33277311,1.01680672 C4.33277311,1.01680672 14.5378151,1.01344538 19.2470588,1.01344538 Z M9.1092437,14.9327731 L9.1092437,8.73781513 L14.3764706,11.8369748 L9.1092437,14.9327731 Z M16.2252101,11.1848739 L8.7394958,6.78823529 C8.51092437,6.65378151 8.22857143,6.65378151 8,6.78823529 C7.77142857,6.92268908 7.6302521,7.17142857 7.6302521,7.44033613 L7.6302521,16.2369748 C7.6302521,16.5058824 7.77142857,16.7546218 8,16.8857143 C8.11428571,16.9529412 8.24201681,16.9865546 8.3697479,16.9865546 C8.49747899,16.9865546 8.62521008,16.9529412 8.7394958,16.8857143 L16.2218487,12.4890756 C16.4504202,12.3546218 16.5915966,12.1058824 16.5915966,11.8369748 C16.5915966,11.5680672 16.4537815,11.3193277 16.2252101,11.1848739 Z" id="Video-_3Masa"></path>
        </g>
    </g>
</svg>

<svg width="24" height="24" viewBox="0 0 24 24" xmlns="http://www.w3.org/2000/svg"><path d="M19.93 21.138c1.855-.148 2.154-1.634 2.198-2.521h-2.199v2.52zM1.491 18.637c.034.427.165 1.207.683 1.761.353.373.86.605 1.52.696v-2.457H1.491zM2.504 2.943c-.238.151-.917.615-1.005 2.168h2.195V2.546c-.343.04-.79.138-1.19.397zm19.634 2.151c-.02-.403-.125-1.237-.666-1.822-.35-.38-.867-.615-1.54-.709v2.531h2.206zm-2.209 12.024h2.209v-2.505h-2.209v2.505zm0-8.017h2.209V6.597h-2.209V9.1zm0 4.007h2.209v-2.505h-2.209v2.505zM1.482 17.134h2.209V14.63H1.482v2.504zm0-8.023h2.212V6.613H1.482v2.498zm0 1.502v2.511h2.209v-2.51H1.482zm17.765-9.6c4.71 0 4.366 4.437 4.366 4.437s.004 7.748.004 12.743c0 4.094-2.931 4.464-3.99 4.464-.232 0-.377-.02-.377-.02H4.35c-4.636 0-4.34-4.42-4.34-4.42S.007 10.227.007 5.424c0-4.121 3.186-4.414 4.09-4.414.148 0 .236.007.236.007s10.205-.004 14.914-.004zM9.11 14.933V8.738l5.267 3.099-5.267 3.096zm7.116-3.748L8.74 6.788a.728.728 0 00-.739 0 .756.756 0 00-.37.652v8.797a.747.747 0 00.74.75.729.729 0 00.37-.101l7.482-4.397a.756.756 0 00.37-.652.753.753 0 00-.367-.652z" fill="#5CB615" fill-rule="nonzero"/></svg>
